X: 72
T:Ita: Minfreda. JC.070
T:Monferina,aka. JC.070
M:6/8
L:1/8
Q:100
S:John Clare,Poet,Helpston. (1793-1864)
R:Jig
O:England
A:Northamptonshire
N:Title is given as "Ita: Minfreda"
Z:vmp.P. Headford
K:G
D|FAB BcA|AGGG2(B/c/)|dBG GAF|AGGG2D|!
GAB BcA|AGGG2G|GFF FGA|{B}AGGG2:|!
|:g|gfg afc|cBdd2g|gfg afc|cBdd2d|!
{g}gf{g}g gfg|ece efg|ded cBA|AGGG2:|]
